public/skilliconslinkedin.svg

<svg width="41" height="40" viewBox="0 0 41 40" fill="none" xmlns="http://www.w3.org/2000/svg">
<g clip-path="url(#clip0_1852_136)">
<path d="M31.125 0H9.875C4.69733 0 0.5 4.19733 0.5 9.375V30.625C0.5 35.8027 4.69733 40 9.875 40H31.125C36.3027 40 40.5 35.8027 40.5 30.625V9.375C40.5 4.19733 36.3027 0 31.125 0Z" fill="white"/>
<path d="M9.875 0.5H31.125C36.0265 0.5 40 4.47347 40 9.375V30.625C40 35.5265 36.0265 39.5 31.125 39.5H9.875C4.97347 39.5 1 35.5265 1 30.625V9.375C1 4.47347 4.97347 0.5 9.875 0.5Z" fill="#0A66C2" stroke="white"/>
<path d="M29.3617 34.0133H33.9352C34.1009 34.0133 34.2598 33.9475 34.377 33.8303C34.4942 33.7131 34.5601 33.5542 34.5602 33.3884L34.5625 23.7256C34.5625 18.6752 33.4742 14.7931 27.5722 14.7931C25.3286 14.7097 23.2128 15.8662 22.0711 17.7975C22.0655 17.8069 22.057 17.8142 22.0469 17.8183C22.0368 17.8224 22.0256 17.8231 22.0151 17.8202C22.0045 17.8173 21.9952 17.8111 21.9885 17.8025C21.9819 17.7938 21.9782 17.7833 21.9781 17.7723V15.8844C21.9781 15.7186 21.9123 15.5596 21.7951 15.4424C21.6779 15.3252 21.5189 15.2594 21.3531 15.2594H17.013C16.8472 15.2594 16.6882 15.3252 16.571 15.4424C16.4538 15.5596 16.388 15.7186 16.388 15.8844V33.3875C16.388 33.5533 16.4538 33.7122 16.571 33.8294C16.6882 33.9467 16.8472 34.0125 17.013 34.0125H21.5861C21.7519 34.0125 21.9108 33.9467 22.028 33.8294C22.1452 33.7122 22.2111 33.5533 22.2111 33.3875V24.7355C22.2111 22.2891 22.6752 19.9198 25.7081 19.9198C28.698 19.9198 28.7367 22.7192 28.7367 24.8939V33.3883C28.7367 33.554 28.8026 33.713 28.9198 33.8302C29.037 33.9474 29.196 34.0133 29.3617 34.0133ZM6.4375 9.31672C6.4375 11.1706 7.96359 12.6959 9.8175 12.6959C11.6709 12.6958 13.1961 11.1695 13.1961 9.31609C13.1958 7.46266 11.6705 5.9375 9.81687 5.9375C7.96281 5.9375 6.4375 7.46297 6.4375 9.31672ZM7.52484 34.0133H12.1041C12.2698 34.0133 12.4288 33.9474 12.546 33.8302C12.6632 33.713 12.7291 33.554 12.7291 33.3883V15.8844C12.7291 15.7186 12.6632 15.5596 12.546 15.4424C12.4288 15.3252 12.2698 15.2594 12.1041 15.2594H7.52484C7.35908 15.2594 7.20011 15.3252 7.0829 15.4424C6.96569 15.5596 6.89984 15.7186 6.89984 15.8844V33.3883C6.89984 33.554 6.96569 33.713 7.0829 33.8302C7.20011 33.9474 7.35908 34.0133 7.52484 34.0133Z" fill="white"/>
</g>
<defs>
<clipPath id="clip0_1852_136">
<rect width="40" height="40" fill="white" transform="translate(0.5)"/>
</clipPath>
</defs>
</svg>

<svg width="41" height="40" fill="none" xmlns="http://www.w3.org/2000/svg"><g clip-path="url(#a)"><path d="M31.125 0H9.875A9.375 9.375 0 0 0 .5 9.375v21.25A9.375 9.375 0 0 0 9.875 40h21.25a9.375 9.375 0 0 0 9.375-9.375V9.375A9.375 9.375 0 0 0 31.125 0z" fill="#fff"/><path d="M9.875.5h21.25A8.875 8.875 0 0 1 40 9.375v21.25a8.875 8.875 0 0 1-8.875 8.875H9.875A8.875 8.875 0 0 1 1 30.625V9.375A8.875 8.875 0 0 1 9.875.5z" fill="#0A66C2" stroke="#fff"/><path d="M29.362 34.013h4.573a.625.625 0 0 0 .625-.625l.002-9.662c0-5.05-1.088-8.933-6.99-8.933a6.134 6.134 0 0 0-5.5 3.005.05.05 0 0 1-.094-.026v-1.888a.625.625 0 0 0-.625-.625h-4.34a.625.625 0 0 0-.625.625v17.504a.625.625 0 0 0 .625.625h4.573a.624.624 0 0 0 .625-.625v-8.652c0-2.447.464-4.816 3.497-4.816 2.99 0 3.029 2.8 3.029 4.974v8.494a.625.625 0 0 0 .625.625zM6.438 9.317a3.396 3.396 0 0 0 3.38 3.379 3.396 3.396 0 0 0 3.378-3.38 3.395 3.395 0 0 0-3.38-3.379 3.395 3.395 0 0 0-3.379 3.38zm1.087 24.696h4.58a.625.625 0 0 0 .624-.625V15.884a.625.625 0 0 0-.625-.625h-4.58a.625.625 0 0 0-.624.625v17.504a.625.625 0 0 0 .625.625z" fill="#fff"/></g><defs><clipPath id="a"><path fill="#fff" transform="translate(.5)" d="M0 0h40v40H0z"/></clipPath></defs></svg>
